X: 1368
T: How the Money Goes
R: reel
O: F.O'Neill
B: O'Neill's 1850 #1368
Z: Trish O'Neil
Z: Compacted via repeats and multiple endings [JC]
M: C|
L: 1/8
K: G
|: G2Bd gdBd | cBAc BGEF | G2Bd gdBd | ecAF [1 GFED :|[2 G2 |] ef | gbef gedf | gbef g2ef |
| gbef gedc | BGAFG2ef || gbef gedf | gbef g2ga | (3(gab) (3(bag) gfed | egfa g2z2 |]
